tools/qt_gamma_compensation_lut/QT Gamma Compensation.cube
TITLE QT_Gamma_Compensation
# Copyright 2019 Adobe
# This LUT is designed to be used on export to make PPro/AE exports display as expected in Apple Quicktime player
# Do not use this LUT on an Adjustment Layer!
# Quicktime Player uses scene-referred gamma 1.96, which is wrong for broadcast TV.
# PPro/AE use display referred gamma 2.4 which is the standard established in BT.1886 (broadcast TV)
# This LUT reduces the gamma by the exact difference between 2.4 and 1.96 so that when the exported file is viewed in QT Player the appearance matches PPro/AE
# This will also correct the "washed out" problem when posted to YouTube/Vimeo and viewing in Safari/Chrome
  
LUT_1D_SIZE 1024  
  
0.0000000 0.0000000 0.0000000
0.0002072 0.0002072 0.0002072
0.0004839 0.0004839 0.0004839
0.0007948 0.0007948 0.0007948
0.0011302 0.0011302 0.0011302
0.0014851 0.0014851 0.0014851
0.0018564 0.0018564 0.0018564
0.0022418 0.0022418 0.0022418
0.0026398 0.0026398 0.0026398
0.0030492 0.0030492 0.0030492
0.0034688 0.0034688 0.0034688
0.0038980 0.0038980 0.0038980
0.0043360 0.0043360 0.0043360
0.0047823 0.0047823 0.0047823
0.0052363 0.0052363 0.0052363
0.0056976 0.0056976 0.0056976
0.0061659 0.0061659 0.0061659
0.0066408 0.0066408 0.0066408
0.0071220 0.0071220 0.0071220
0.0076092 0.0076092 0.0076092
0.0081022 0.0081022 0.0081022
0.0086007 0.0086007 0.0086007
0.0091046 0.0091046 0.0091046
0.0096137 0.0096137 0.0096137
0.0101277 0.0101277 0.0101277
0.0106465 0.0106465 0.0106465
0.0111700 0.0111700 0.0111700
0.0116981 0.0116981 0.0116981
0.0122305 0.0122305 0.0122305
0.0127672 0.0127672 0.0127672
0.0133081 0.0133081 0.0133081
0.0138530 0.0138530 0.0138530
0.0144019 0.0144019 0.0144019
0.0149546 0.0149546 0.0149546
0.0155111 0.0155111 0.0155111
0.0160712 0.0160712 0.0160712
0.0166350 0.0166350 0.0166350
0.0172022 0.0172022 0.0172022
0.0177730 0.0177730 0.0177730
0.0183471 0.0183471 0.0183471
0.0189244 0.0189244 0.0189244
0.0195051 0.0195051 0.0195051
0.0200889 0.0200889 0.0200889
0.0206758 0.0206758 0.0206758
0.0212658 0.0212658 0.0212658
0.0218588 0.0218588 0.0218588
0.0224548 0.0224548 0.0224548
0.0230537 0.0230537 0.0230537
0.0236554 0.0236554 0.0236554
0.0242599 0.0242599 0.0242599
0.0248673 0.0248673 0.0248673
0.0254773 0.0254773 0.0254773
0.0260900 0.0260900 0.0260900
0.0267054 0.0267054 0.0267054
0.0273234 0.0273234 0.0273234
0.0279439 0.0279439 0.0279439
0.0285670 0.0285670 0.0285670
0.0291925 0.0291925 0.0291925
0.0298206 0.0298206 0.0298206
0.0304510 0.0304510 0.0304510
0.0310839 0.0310839 0.0310839
0.0317191 0.0317191 0.0317191
0.0323567 0.0323567 0.0323567
0.0329965 0.0329965 0.0329965
0.0336387 0.0336387 0.0336387
0.0342830 0.0342830 0.0342830
0.0349297 0.0349297 0.0349297
0.0355785 0.0355785 0.0355785
0.0362294 0.0362294 0.0362294
0.0368826 0.0368826 0.0368826
0.0375378 0.0375378 0.0375378
0.0381952 0.0381952 0.0381952
0.0388546 0.0388546 0.0388546
0.0395161 0.0395161 0.0395161
0.0401796 0.0401796 0.0401796
0.0408451 0.0408451 0.0408451
0.0415126 0.0415126 0.0415126
0.0421821 0.0421821 0.0421821
0.0428535 0.0428535 0.0428535
0.0435269 0.0435269 0.0435269
0.0442021 0.0442021 0.0442021
0.0448793 0.0448793 0.0448793
0.0455583 0.0455583 0.0455583
0.0462392 0.0462392 0.0462392
0.0469220 0.0469220 0.0469220
0.0476065 0.0476065 0.0476065
0.0482929 0.0482929 0.0482929
0.0489810 0.0489810 0.0489810
0.0496709 0.0496709 0.0496709
0.0503626 0.0503626 0.0503626
0.0510560 0.0510560 0.0510560
0.0517512 0.0517512 0.0517512
0.0524481 0.0524481 0.0524481
0.0531466 0.0531466 0.0531466
0.0538468 0.0538468 0.0538468
0.0545488 0.0545488 0.0545488
0.0552523 0.0552523 0.0552523
0.0559575 0.0559575 0.0559575
0.0566644 0.0566644 0.0566644
0.0573728 0.0573728 0.0573728
0.0580829 0.0580829 0.0580829
0.0587945 0.0587945 0.0587945
0.0595078 0.0595078 0.0595078
0.0602226 0.0602226 0.0602226
0.0609389 0.0609389 0.0609389
0.0616568 0.0616568 0.0616568
0.0623762 0.0623762 0.0623762
0.0630972 0.0630972 0.0630972
0.0638196 0.0638196 0.0638196
0.0645436 0.0645436 0.0645436
0.0652690 0.0652690 0.0652690
0.0659960 0.0659960 0.0659960
0.0667244 0.0667244 0.0667244
0.0674542 0.0674542 0.0674542
0.0681855 0.0681855 0.0681855
0.0689182 0.0689182 0.0689182
0.0696524 0.0696524 0.0696524
0.0703880 0.0703880 0.0703880
0.0711250 0.0711250 0.0711250
0.0718634 0.0718634 0.0718634
0.0726031 0.0726031 0.0726031
0.0733443 0.0733443 0.0733443
0.0740868 0.0740868 0.0740868
0.0748307 0.0748307 0.0748307
0.0755760 0.0755760 0.0755760
0.0763226 0.0763226 0.0763226
0.0770705 0.0770705 0.0770705
0.0778198 0.0778198 0.0778198
0.0785704 0.0785704 0.0785704
0.0793223 0.0793223 0.0793223
0.0800755 0.0800755 0.0800755
0.0808300 0.0808300 0.0808300
0.0815858 0.0815858 0.0815858
0.0823429 0.0823429 0.0823429
0.0831012 0.0831012 0.0831012
0.0838608 0.0838608 0.0838608
0.0846217 0.0846217 0.0846217
0.0853839 0.0853839 0.0853839
0.0861472 0.0861472 0.0861472
0.0869119 0.0869119 0.0869119
0.0876777 0.0876777 0.0876777
0.0884448 0.0884448 0.0884448
0.0892131 0.0892131 0.0892131
0.0899826 0.0899826 0.0899826
0.0907533 0.0907533 0.0907533
0.0915252 0.0915252 0.0915252
0.0922984 0.0922984 0.0922984
0.0930726 0.0930726 0.0930726
0.0938481 0.0938481 0.0938481
0.0946248 0.0946248 0.0946248
0.0954026 0.0954026 0.0954026
0.0961816 0.0961816 0.0961816
0.0969617 0.0969617 0.0969617
0.0977430 0.0977430 0.0977430
0.0985254 0.0985254 0.0985254
0.0993090 0.0993090 0.0993090
0.1000937 0.1000937 0.1000937
0.1008795 0.1008795 0.1008795
0.1016665 0.1016665 0.1016665
0.1024545 0.1024545 0.1024545
0.1032437 0.1032437 0.1032437
0.1040340 0.1040340 0.1040340
0.1048254 0.1048254 0.1048254
0.1056178 0.1056178 0.1056178
0.1064114 0.1064114 0.1064114
0.1072060 0.1072060 0.1072060
0.1080018 0.1080018 0.1080018
0.1087986 0.1087986 0.1087986
0.1095964 0.1095964 0.1095964
0.1103954 0.1103954 0.1103954
0.1111954 0.1111954 0.1111954
0.1119964 0.1119964 0.1119964
0.1127985 0.1127985 0.1127985
0.1136016 0.1136016 0.1136016
0.1144058 0.1144058 0.1144058
0.1152110 0.1152110 0.1152110
0.1160173 0.1160173 0.1160173
0.1168245 0.1168245 0.1168245
0.1176328 0.1176328 0.1176328
0.1184421 0.1184421 0.1184421
0.1192525 0.1192525 0.1192525
0.1200638 0.1200638 0.1200638
0.1208761 0.1208761 0.1208761
0.1216895 0.1216895 0.1216895
0.1225038 0.1225038 0.1225038
0.1233191 0.1233191 0.1233191
0.1241354 0.1241354 0.1241354
0.1249527 0.1249527 0.1249527
0.1257710 0.1257710 0.1257710
0.1265902 0.1265902 0.1265902
0.1274105 0.1274105 0.1274105
0.1282316 0.1282316 0.1282316
0.1290538 0.1290538 0.1290538
0.1298769 0.1298769 0.1298769
0.1307010 0.1307010 0.1307010
0.1315260 0.1315260 0.1315260
0.1323519 0.1323519 0.1323519
0.1331788 0.1331788 0.1331788
0.1340067 0.1340067 0.1340067
0.1348355 0.1348355 0.1348355
0.1356652 0.1356652 0.1356652
0.1364958 0.1364958 0.1364958
0.1373274 0.1373274 0.1373274
0.1381599 0.1381599 0.1381599
0.1389933 0.1389933 0.1389933
0.1398276 0.1398276 0.1398276
0.1406628 0.1406628 0.1406628
0.1414990 0.1414990 0.1414990
0.1423360 0.1423360 0.1423360
0.1431740 0.1431740 0.1431740
0.1440128 0.1440128 0.1440128
0.1448526 0.1448526 0.1448526
0.1456932 0.1456932 0.1456932
0.1465347 0.1465347 0.1465347
0.1473772 0.1473772 0.1473772
0.1482204 0.1482204 0.1482204
0.1490646 0.1490646 0.1490646
0.1499097 0.1499097 0.1499097
0.1507556 0.1507556 0.1507556
0.1516024 0.1516024 0.1516024
0.1524500 0.1524500 0.1524500
0.1532985 0.1532985 0.1532985
0.1541479 0.1541479 0.1541479
0.1549981 0.1549981 0.1549981
0.1558492 0.1558492 0.1558492
0.1567011 0.1567011 0.1567011
0.1575539 0.1575539 0.1575539
0.1584076 0.1584076 0.1584076
0.1592620 0.1592620 0.1592620
0.1601173 0.1601173 0.1601173
0.1609735 0.1609735 0.1609735
0.1618305 0.1618305 0.1618305
0.1626883 0.1626883 0.1626883
0.1635469 0.1635469 0.1635469
0.1644064 0.1644064 0.1644064
0.1652667 0.1652667 0.1652667
0.1661278 0.1661278 0.1661278
0.1669897 0.1669897 0.1669897
0.1678524 0.1678524 0.1678524
0.1687160 0.1687160 0.1687160
0.1695804 0.1695804 0.1695804
0.1704455 0.1704455 0.1704455
0.1713115 0.1713115 0.1713115
0.1721783 0.1721783 0.1721783
0.1730458 0.1730458 0.1730458
0.1739142 0.1739142 0.1739142
0.1747834 0.1747834 0.1747834
0.1756533 0.1756533 0.1756533
0.1765241 0.1765241 0.1765241
0.1773956 0.1773956 0.1773956
0.1782679 0.1782679 0.1782679
0.1791410 0.1791410 0.1791410
0.1800149 0.1800149 0.1800149
0.1808895 0.1808895 0.1808895
0.1817650 0.1817650 0.1817650
0.1826411 0.1826411 0.1826411
0.1835181 0.1835181 0.1835181
0.1843958 0.1843958 0.1843958
0.1852743 0.1852743 0.1852743
0.1861536 0.1861536 0.1861536
0.1870336 0.1870336 0.1870336
0.1879144 0.1879144 0.1879144
0.1887959 0.1887959 0.1887959
0.1896782 0.1896782 0.1896782
0.1905613 0.1905613 0.1905613
0.1914451 0.1914451 0.1914451
0.1923296 0.1923296 0.1923296
0.1932149 0.1932149 0.1932149
0.1941009 0.1941009 0.1941009
0.1949877 0.1949877 0.1949877
0.1958752 0.1958752 0.1958752
0.1967634 0.1967634 0.1967634
0.1976524 0.1976524 0.1976524
0.1985421 0.1985421 0.1985421
0.1994325 0.1994325 0.1994325
0.2003237 0.2003237 0.2003237
0.2012155 0.2012155 0.2012155
0.2021082 0.2021082 0.2021082
0.2030015 0.2030015 0.2030015
0.2038955 0.2038955 0.2038955
0.2047903 0.2047903 0.2047903
0.2056858 0.2056858 0.2056858
0.2065820 0.2065820 0.2065820
0.2074789 0.2074789 0.2074789
0.2083765 0.2083765 0.2083765
0.2092749 0.2092749 0.2092749
0.2101739 0.2101739 0.2101739
0.2110736 0.2110736 0.2110736
0.2119741 0.2119741 0.2119741
0.2128752 0.2128752 0.2128752
0.2137770 0.2137770 0.2137770
0.2146796 0.2146796 0.2146796
0.2155828 0.2155828 0.2155828
0.2164867 0.2164867 0.2164867
0.2173914 0.2173914 0.2173914
0.2182967 0.2182967 0.2182967
0.2192026 0.2192026 0.2192026
0.2201093 0.2201093 0.2201093
0.2210167 0.2210167 0.2210167
0.2219247 0.2219247 0.2219247
0.2228334 0.2228334 0.2228334
0.2237428 0.2237428 0.2237428
0.2246529 0.2246529 0.2246529
0.2255637 0.2255637 0.2255637
0.2264751 0.2264751 0.2264751
0.2273872 0.2273872 0.2273872
0.2282999 0.2282999 0.2282999
0.2292134 0.2292134 0.2292134
0.2301275 0.2301275 0.2301275
0.2310422 0.2310422 0.2310422
0.2319577 0.2319577 0.2319577
0.2328738 0.2328738 0.2328738
0.2337905 0.2337905 0.2337905
0.2347079 0.2347079 0.2347079
0.2356260 0.2356260 0.2356260
0.2365447 0.2365447 0.2365447
0.2374641 0.2374641 0.2374641
0.2383841 0.2383841 0.2383841
0.2393048 0.2393048 0.2393048
0.2402261 0.2402261 0.2402261
0.2411480 0.2411480 0.2411480
0.2420707 0.2420707 0.2420707
0.2429939 0.2429939 0.2429939
0.2439178 0.2439178 0.2439178
0.2448424 0.2448424 0.2448424
0.2457675 0.2457675 0.2457675
0.2466933 0.2466933 0.2466933
0.2476198 0.2476198 0.2476198
0.2485469 0.2485469 0.2485469
0.2494746 0.2494746 0.2494746
0.2504029 0.2504029 0.2504029
0.2513319 0.2513319 0.2513319
0.2522615 0.2522615 0.2522615
0.2531918 0.2531918 0.2531918
0.2541226 0.2541226 0.2541226
0.2550541 0.2550541 0.2550541
0.2559862 0.2559862 0.2559862
0.2569190 0.2569190 0.2569190
0.2578523 0.2578523 0.2578523
0.2587863 0.2587863 0.2587863
0.2597209 0.2597209 0.2597209
0.2606561 0.2606561 0.2606561
0.2615919 0.2615919 0.2615919
0.2625283 0.2625283 0.2625283
0.2634653 0.2634653 0.2634653
0.2644030 0.2644030 0.2644030
0.2653412 0.2653412 0.2653412
0.2662801 0.2662801 0.2662801
0.2672196 0.2672196 0.2672196
0.2681596 0.2681596 0.2681596
0.2691003 0.2691003 0.2691003
0.2700416 0.2700416 0.2700416
0.2709835 0.2709835 0.2709835
0.2719260 0.2719260 0.2719260
0.2728690 0.2728690 0.2728690
0.2738127 0.2738127 0.2738127
0.2747570 0.2747570 0.2747570
0.2757018 0.2757018 0.2757018
0.2766473 0.2766473 0.2766473
0.2775933 0.2775933 0.2775933
0.2785400 0.2785400 0.2785400
0.2794872 0.2794872 0.2794872
0.2804350 0.2804350 0.2804350
0.2813834 0.2813834 0.2813834
0.2823324 0.2823324 0.2823324
0.2832820 0.2832820 0.2832820
0.2842321 0.2842321 0.2842321
0.2851829 0.2851829 0.2851829
0.2861342 0.2861342 0.2861342
0.2870861 0.2870861 0.2870861
0.2880385 0.2880385 0.2880385
0.2889916 0.2889916 0.2889916
0.2899452 0.2899452 0.2899452
0.2908994 0.2908994 0.2908994
0.2918542 0.2918542 0.2918542
0.2928095 0.2928095 0.2928095
0.2937654 0.2937654 0.2937654
0.2947219 0.2947219 0.2947219
0.2956789 0.2956789 0.2956789
0.2966366 0.2966366 0.2966366
0.2975947 0.2975947 0.2975947
0.2985535 0.2985535 0.2985535
0.2995128 0.2995128 0.2995128
0.3004727 0.3004727 0.3004727
0.3014331 0.3014331 0.3014331
0.3023941 0.3023941 0.3023941
0.3033556 0.3033556 0.3033556
0.3043177 0.3043177 0.3043177
0.3052804 0.3052804 0.3052804
0.3062436 0.3062436 0.3062436
0.3072074 0.3072074 0.3072074
0.3081717 0.3081717 0.3081717
0.3091366 0.3091366 0.3091366
0.3101021 0.3101021 0.3101021
0.3110680 0.3110680 0.3110680
0.3120346 0.3120346 0.3120346
0.3130016 0.3130016 0.3130016
0.3139693 0.3139693 0.3139693
0.3149374 0.3149374 0.3149374
0.3159062 0.3159062 0.3159062
0.3168754 0.3168754 0.3168754
0.3178452 0.3178452 0.3178452
0.3188156 0.3188156 0.3188156
0.3197865 0.3197865 0.3197865
0.3207579 0.3207579 0.3207579
0.3217298 0.3217298 0.3217298
0.3227023 0.3227023 0.3227023
0.3236754 0.3236754 0.3236754
0.3246490 0.3246490 0.3246490
0.3256231 0.3256231 0.3256231
0.3265977 0.3265977 0.3265977
0.3275729 0.3275729 0.3275729
0.3285486 0.3285486 0.3285486
0.3295248 0.3295248 0.3295248
0.3305016 0.3305016 0.3305016
0.3314789 0.3314789 0.3314789
0.3324567 0.3324567 0.3324567
0.3334350 0.3334350 0.3334350
0.3344139 0.3344139 0.3344139
0.3353933 0.3353933 0.3353933
0.3363732 0.3363732 0.3363732
0.3373537 0.3373537 0.3373537
0.3383346 0.3383346 0.3383346
0.3393161 0.3393161 0.3393161
0.3402981 0.3402981 0.3402981
0.3412806 0.3412806 0.3412806
0.3422637 0.3422637 0.3422637
0.3432472 0.3432472 0.3432472
0.3442313 0.3442313 0.3442313
0.3452159 0.3452159 0.3452159
0.3462010 0.3462010 0.3462010
0.3471866 0.3471866 0.3471866
0.3481727 0.3481727 0.3481727
0.3491594 0.3491594 0.3491594
0.3501465 0.3501465 0.3501465
0.3511342 0.3511342 0.3511342
0.3521223 0.3521223 0.3521223
0.3531110 0.3531110 0.3531110
0.3541002 0.3541002 0.3541002
0.3550899 0.3550899 0.3550899
0.3560800 0.3560800 0.3560800
0.3570707 0.3570707 0.3570707
0.3580619 0.3580619 0.3580619
0.3590536 0.3590536 0.3590536
0.3600458 0.3600458 0.3600458
0.3610385 0.3610385 0.3610385
0.3620317 0.3620317 0.3620317
0.3630254 0.3630254 0.3630254
0.3640196 0.3640196 0.3640196
0.3650143 0.3650143 0.3650143
0.3660095 0.3660095 0.3660095
0.3670052 0.3670052 0.3670052
0.3680014 0.3680014 0.3680014
0.3689980 0.3689980 0.3689980
0.3699952 0.3699952 0.3699952
0.3709929 0.3709929 0.3709929
0.3719910 0.3719910 0.3719910
0.3729896 0.3729896 0.3729896
0.3739888 0.3739888 0.3739888
0.3749884 0.3749884 0.3749884
0.3759885 0.3759885 0.3759885
0.3769891 0.3769891 0.3769891
0.3779901 0.3779901 0.3779901
0.3789917 0.3789917 0.3789917
0.3799938 0.3799938 0.3799938
0.3809963 0.3809963 0.3809963
0.3819993 0.3819993 0.3819993
0.3830028 0.3830028 0.3830028
0.3840068 0.3840068 0.3840068
0.3850112 0.3850112 0.3850112
0.3860162 0.3860162 0.3860162
0.3870216 0.3870216 0.3870216
0.3880275 0.3880275 0.3880275
0.3890338 0.3890338 0.3890338
0.3900407 0.3900407 0.3900407
0.3910480 0.3910480 0.3910480
0.3920558 0.3920558 0.3920558
0.3930641 0.3930641 0.3930641
0.3940728 0.3940728 0.3940728
0.3950820 0.3950820 0.3950820
0.3960917 0.3960917 0.3960917
0.3971019 0.3971019 0.3971019
0.3981125 0.3981125 0.3981125
0.3991236 0.3991236 0.3991236
0.4001352 0.4001352 0.4001352
0.4011472 0.4011472 0.4011472
0.4021597 0.4021597 0.4021597
0.4031727 0.4031727 0.4031727
0.4041861 0.4041861 0.4041861
0.4052000 0.4052000 0.4052000
0.4062144 0.4062144 0.4062144
0.4072292 0.4072292 0.4072292
0.4082445 0.4082445 0.4082445
0.4092602 0.4092602 0.4092602
0.4102764 0.4102764 0.4102764
0.4112931 0.4112931 0.4112931
0.4123102 0.4123102 0.4123102
0.4133278 0.4133278 0.4133278
0.4143459 0.4143459 0.4143459
0.4153644 0.4153644 0.4153644
0.4163834 0.4163834 0.4163834
0.4174028 0.4174028 0.4174028
0.4184227 0.4184227 0.4184227
0.4194430 0.4194430 0.4194430
0.4204638 0.4204638 0.4204638
0.4214850 0.4214850 0.4214850
0.4225067 0.4225067 0.4225067
0.4235289 0.4235289 0.4235289
0.4245515 0.4245515 0.4245515
0.4255745 0.4255745 0.4255745
0.4265980 0.4265980 0.4265980
0.4276219 0.4276219 0.4276219
0.4286463 0.4286463 0.4286463
0.4296712 0.4296712 0.4296712
0.4306965 0.4306965 0.4306965
0.4317222 0.4317222 0.4317222
0.4327484 0.4327484 0.4327484
0.4337750 0.4337750 0.4337750
0.4348021 0.4348021 0.4348021
0.4358296 0.4358296 0.4358296
0.4368576 0.4368576 0.4368576
0.4378860 0.4378860 0.4378860
0.4389148 0.4389148 0.4389148
0.4399441 0.4399441 0.4399441
0.4409738 0.4409738 0.4409738
0.4420040 0.4420040 0.4420040
0.4430346 0.4430346 0.4430346
0.4440657 0.4440657 0.4440657
0.4450972 0.4450972 0.4450972
0.4461291 0.4461291 0.4461291
0.4471614 0.4471614 0.4471614
0.4481942 0.4481942 0.4481942
0.4492275 0.4492275 0.4492275
0.4502611 0.4502611 0.4502611
0.4512952 0.4512952 0.4512952
0.4523298 0.4523298 0.4523298
0.4533647 0.4533647 0.4533647
0.4544001 0.4544001 0.4544001
0.4554359 0.4554359 0.4554359
0.4564722 0.4564722 0.4564722
0.4575089 0.4575089 0.4575089
0.4585460 0.4585460 0.4585460
0.4595836 0.4595836 0.4595836
0.4606215 0.4606215 0.4606215
0.4616600 0.4616600 0.4616600
0.4626988 0.4626988 0.4626988
0.4637380 0.4637380 0.4637380
0.4647777 0.4647777 0.4647777
0.4658178 0.4658178 0.4658178
0.4668584 0.4668584 0.4668584
0.4678993 0.4678993 0.4678993
0.4689407 0.4689407 0.4689407
0.4699825 0.4699825 0.4699825
0.4710248 0.4710248 0.4710248
0.4720674 0.4720674 0.4720674
0.4731105 0.4731105 0.4731105
0.4741540 0.4741540 0.4741540
0.4751979 0.4751979 0.4751979
0.4762423 0.4762423 0.4762423
0.4772870 0.4772870 0.4772870
0.4783322 0.4783322 0.4783322
0.4793778 0.4793778 0.4793778
0.4804238 0.4804238 0.4804238
0.4814702 0.4814702 0.4814702
0.4825170 0.4825170 0.4825170
0.4835643 0.4835643 0.4835643
0.4846120 0.4846120 0.4846120
0.4856601 0.4856601 0.4856601
0.4867086 0.4867086 0.4867086
0.4877575 0.4877575 0.4877575
0.4888068 0.4888068 0.4888068
0.4898565 0.4898565 0.4898565
0.4909067 0.4909067 0.4909067
0.4919573 0.4919573 0.4919573
0.4930082 0.4930082 0.4930082
0.4940596 0.4940596 0.4940596
0.4951114 0.4951114 0.4951114
0.4961636 0.4961636 0.4961636
0.4972162 0.4972162 0.4972162
0.4982692 0.4982692 0.4982692
0.4993226 0.4993226 0.4993226
0.5003765 0.5003765 0.5003765
0.5014307 0.5014307 0.5014307
0.5024854 0.5024854 0.5024854
0.5035404 0.5035404 0.5035404
0.5045959 0.5045959 0.5045959
0.5056517 0.5056517 0.5056517
0.5067080 0.5067080 0.5067080
0.5077646 0.5077646 0.5077646
0.5088217 0.5088217 0.5088217
0.5098792 0.5098792 0.5098792
0.5109370 0.5109370 0.5109370
0.5119953 0.5119953 0.5119953
0.5130540 0.5130540 0.5130540
0.5141130 0.5141130 0.5141130
0.5151725 0.5151725 0.5151725
0.5162324 0.5162324 0.5162324
0.5172926 0.5172926 0.5172926
0.5183533 0.5183533 0.5183533
0.5194144 0.5194144 0.5194144
0.5204758 0.5204758 0.5204758
0.5215377 0.5215377 0.5215377
0.5225999 0.5225999 0.5225999
0.5236626 0.5236626 0.5236626
0.5247256 0.5247256 0.5247256
0.5257890 0.5257890 0.5257890
0.5268528 0.5268528 0.5268528
0.5279171 0.5279171 0.5279171
0.5289817 0.5289817 0.5289817
0.5300467 0.5300467 0.5300467
0.5311121 0.5311121 0.5311121
0.5321779 0.5321779 0.5321779
0.5332440 0.5332440 0.5332440
0.5343106 0.5343106 0.5343106
0.5353776 0.5353776 0.5353776
0.5364449 0.5364449 0.5364449
0.5375126 0.5375126 0.5375126
0.5385808 0.5385808 0.5385808
0.5396493 0.5396493 0.5396493
0.5407182 0.5407182 0.5407182
0.5417874 0.5417874 0.5417874
0.5428571 0.5428571 0.5428571
0.5439272 0.5439272 0.5439272
0.5449976 0.5449976 0.5449976
0.5460684 0.5460684 0.5460684
0.5471396 0.5471396 0.5471396
0.5482112 0.5482112 0.5482112
0.5492832 0.5492832 0.5492832
0.5503556 0.5503556 0.5503556
0.5514283 0.5514283 0.5514283
0.5525014 0.5525014 0.5525014
0.5535749 0.5535749 0.5535749
0.5546488 0.5546488 0.5546488
0.5557231 0.5557231 0.5557231
0.5567977 0.5567977 0.5567977
0.5578727 0.5578727 0.5578727
0.5589481 0.5589481 0.5589481
0.5600239 0.5600239 0.5600239
0.5611001 0.5611001 0.5611001
0.5621766 0.5621766 0.5621766
0.5632535 0.5632535 0.5632535
0.5643308 0.5643308 0.5643308
0.5654085 0.5654085 0.5654085
0.5664866 0.5664866 0.5664866
0.5675650 0.5675650 0.5675650
0.5686438 0.5686438 0.5686438
0.5697229 0.5697229 0.5697229
0.5708025 0.5708025 0.5708025
0.5718824 0.5718824 0.5718824
0.5729627 0.5729627 0.5729627
0.5740433 0.5740433 0.5740433
0.5751244 0.5751244 0.5751244
0.5762058 0.5762058 0.5762058
0.5772876 0.5772876 0.5772876
0.5783697 0.5783697 0.5783697
0.5794522 0.5794522 0.5794522
0.5805351 0.5805351 0.5805351
0.5816184 0.5816184 0.5816184
0.5827020 0.5827020 0.5827020
0.5837860 0.5837860 0.5837860
0.5848704 0.5848704 0.5848704
0.5859551 0.5859551 0.5859551
0.5870402 0.5870402 0.5870402
0.5881257 0.5881257 0.5881257
0.5892115 0.5892115 0.5892115
0.5902977 0.5902977 0.5902977
0.5913843 0.5913843 0.5913843
0.5924712 0.5924712 0.5924712
0.5935585 0.5935585 0.5935585
0.5946462 0.5946462 0.5946462
0.5957342 0.5957342 0.5957342
0.5968226 0.5968226 0.5968226
0.5979113 0.5979113 0.5979113
0.5990004 0.5990004 0.5990004
0.6000899 0.6000899 0.6000899
0.6011798 0.6011798 0.6011798
0.6022700 0.6022700 0.6022700
0.6033605 0.6033605 0.6033605
0.6044514 0.6044514 0.6044514
0.6055427 0.6055427 0.6055427
0.6066344 0.6066344 0.6066344
0.6077264 0.6077264 0.6077264
0.6088187 0.6088187 0.6088187
0.6099114 0.6099114 0.6099114
0.6110045 0.6110045 0.6110045
0.6120980 0.6120980 0.6120980
0.6131918 0.6131918 0.6131918
0.6142859 0.6142859 0.6142859
0.6153804 0.6153804 0.6153804
0.6164753 0.6164753 0.6164753
0.6175705 0.6175705 0.6175705
0.6186661 0.6186661 0.6186661
0.6197620 0.6197620 0.6197620
0.6208583 0.6208583 0.6208583
0.6219549 0.6219549 0.6219549
0.6230519 0.6230519 0.6230519
0.6241492 0.6241492 0.6241492
0.6252469 0.6252469 0.6252469
0.6263450 0.6263450 0.6263450
0.6274434 0.6274434 0.6274434
0.6285422 0.6285422 0.6285422
0.6296413 0.6296413 0.6296413
0.6307407 0.6307407 0.6307407
0.6318405 0.6318405 0.6318405
0.6329407 0.6329407 0.6329407
0.6340412 0.6340412 0.6340412
0.6351420 0.6351420 0.6351420
0.6362433 0.6362433 0.6362433
0.6373448 0.6373448 0.6373448
0.6384467 0.6384467 0.6384467
0.6395490 0.6395490 0.6395490
0.6406516 0.6406516 0.6406516
0.6417545 0.6417545 0.6417545
0.6428578 0.6428578 0.6428578
0.6439614 0.6439614 0.6439614
0.6450654 0.6450654 0.6450654
0.6461698 0.6461698 0.6461698
0.6472744 0.6472744 0.6472744
0.6483795 0.6483795 0.6483795
0.6494848 0.6494848 0.6494848
0.6505905 0.6505905 0.6505905
0.6516966 0.6516966 0.6516966
0.6528030 0.6528030 0.6528030
0.6539097 0.6539097 0.6539097
0.6550168 0.6550168 0.6550168
0.6561242 0.6561242 0.6561242
0.6572320 0.6572320 0.6572320
0.6583401 0.6583401 0.6583401
0.6594486 0.6594486 0.6594486
0.6605573 0.6605573 0.6605573
0.6616665 0.6616665 0.6616665
0.6627760 0.6627760 0.6627760
0.6638858 0.6638858 0.6638858
0.6649959 0.6649959 0.6649959
0.6661064 0.6661064 0.6661064
0.6672172 0.6672172 0.6672172
0.6683284 0.6683284 0.6683284
0.6694399 0.6694399 0.6694399
0.6705518 0.6705518 0.6705518
0.6716639 0.6716639 0.6716639
0.6727765 0.6727765 0.6727765
0.6738893 0.6738893 0.6738893
0.6750025 0.6750025 0.6750025
0.6761160 0.6761160 0.6761160
0.6772299 0.6772299 0.6772299
0.6783441 0.6783441 0.6783441
0.6794586 0.6794586 0.6794586
0.6805735 0.6805735 0.6805735
0.6816887 0.6816887 0.6816887
0.6828042 0.6828042 0.6828042
0.6839201 0.6839201 0.6839201
